fs/calendar_rtl_24_regular.svg

<svg viewBox="0 0 24 24" fill="none" xmlns="http://www.w3.org/2000/svg" height="1em" width="1em">
  <path d="M6.25 3C4.45507 3 3 4.45507 3 6.25V17.75C3 19.5449 4.45507 21 6.25 21H17.75C19.5449 21 21 19.5449 21 17.75V6.25C21 4.45507 19.5449 3 17.75 3H6.25ZM4.5 8.5H19.5V17.75C19.5 18.7165 18.7165 19.5 17.75 19.5H6.25C5.2835 19.5 4.5 18.7165 4.5 17.75V8.5ZM16.25 14.5C15.5596 14.5 15 15.0596 15 15.75C15 16.4404 15.5596 17 16.25 17C16.9404 17 17.5 16.4404 17.5 15.75C17.5 15.0596 16.9404 14.5 16.25 14.5ZM12 14.5C11.3096 14.5 10.75 15.0596 10.75 15.75C10.75 16.4404 11.3096 17 12 17C12.6904 17 13.25 16.4404 13.25 15.75C13.25 15.0596 12.6904 14.5 12 14.5ZM16.25 10.5C15.5596 10.5 15 11.0596 15 11.75C15 12.4404 15.5596 13 16.25 13C16.9404 13 17.5 12.4404 17.5 11.75C17.5 11.0596 16.9404 10.5 16.25 10.5ZM12 10.5C11.3096 10.5 10.75 11.0596 10.75 11.75C10.75 12.4404 11.3096 13 12 13C12.6904 13 13.25 12.4404 13.25 11.75C13.25 11.0596 12.6904 10.5 12 10.5ZM7.75 10.5C7.05964 10.5 6.5 11.0596 6.5 11.75C6.5 12.4404 7.05964 13 7.75 13C8.44036 13 9 12.4404 9 11.75C9 11.0596 8.44036 10.5 7.75 10.5ZM6.25 4.5H17.75C18.7165 4.5 19.5 5.2835 19.5 6.25V7H4.5V6.25C4.5 5.2835 5.2835 4.5 6.25 4.5Z" fill="#212121"/>
</svg>

<svg viewBox="0 0 24 24" fill="none" xmlns="http://www.w3.org/2000/svg" height="1em" width="1em">
  <path d="M6.25 3A3.25 3.25 0 0 0 3 6.25v11.5A3.25 3.25 0 0 0 6.25 21h11.5A3.25 3.25 0 0 0 21 17.75V6.25A3.25 3.25 0 0 0 17.75 3H6.25ZM4.5 8.5h15v9.25a1.75 1.75 0 0 1-1.75 1.75H6.25a1.75 1.75 0 0 1-1.75-1.75V8.5Zm11.75 6a1.25 1.25 0 1 0 0 2.5 1.25 1.25 0 0 0 0-2.5Zm-4.25 0a1.25 1.25 0 1 0 0 2.5 1.25 1.25 0 0 0 0-2.5Zm4.25-4a1.25 1.25 0 1 0 0 2.5 1.25 1.25 0 0 0 0-2.5Zm-4.25 0a1.25 1.25 0 1 0 0 2.5 1.25 1.25 0 0 0 0-2.5Zm-4.25 0a1.25 1.25 0 1 0 0 2.5 1.25 1.25 0 0 0 0-2.5Zm-1.5-6h11.5c.966 0 1.75.784 1.75 1.75V7h-15v-.75c0-.966.784-1.75 1.75-1.75Z" fill="#212121"/>
</svg>
